X: 5
T: The Whistling Postman
R: jig
M: 6/8
L: 1/8
K: Dmaj
| ~f3 edB | ~A3 BAF | DFA dfa | baf ede |~f3 edB | ~A3 BAF | DFA ~B3 | cBc d2e:|| ~f3 afd | gBe gBe | ~f3 afa |baf ede |~f3 edB |~A3 BAF |DFA ~B3 |cBc d3 :|


Tune 587	Setting 25268

